svg/fluentui-system-icons/ic_fluent_list_bar_20_filled.svg

<svg width="20" height="20" viewBox="0 0 20 20" fill="none" xmlns="http://www.w3.org/2000/svg">
<path d="M8 17H15.5C16.3284 17 17 16.3284 17 15.5V14.5C17 13.6716 16.3284 13 15.5 13H8V17ZM8 12H15.5C16.3284 12 17 11.3284 17 10.5V9.5C17 8.67157 16.3284 8 15.5 8H8V12ZM7 8V12H4.5C3.67157 12 3 11.3284 3 10.5V9.5C3 8.67157 3.67157 8 4.5 8H7ZM8 7H15.5C16.3284 7 17 6.32843 17 5.5V4.5C17 3.67157 16.3284 3 15.5 3H8V7ZM7 3V7H4.5C3.67157 7 3 6.32843 3 5.5V4.5C3 3.67157 3.67157 3 4.5 3H7ZM7 13V17H4.5C3.67157 17 3 16.3284 3 15.5V14.5C3 13.6716 3.67157 13 4.5 13H7Z" fill="#212121"/>
</svg>

<svg xmlns="http://www.w3.org/2000/svg" width="20" height="20"><path d="M8 17h7.5a1.5 1.5 0 0 0 1.5-1.5v-1a1.5 1.5 0 0 0-1.5-1.5H8v4Zm0-5h7.5a1.5 1.5 0 0 0 1.5-1.5v-1A1.5 1.5 0 0 0 15.5 8H8v4ZM7 8v4H4.5A1.5 1.5 0 0 1 3 10.5v-1A1.5 1.5 0 0 1 4.5 8H7Zm1-1h7.5A1.5 1.5 0 0 0 17 5.5v-1A1.5 1.5 0 0 0 15.5 3H8v4ZM7 3v4H4.5A1.5 1.5 0 0 1 3 5.5v-1A1.5 1.5 0 0 1 4.5 3H7Zm0 10v4H4.5A1.5 1.5 0 0 1 3 15.5v-1A1.5 1.5 0 0 1 4.5 13H7Z"/></svg>
